dist/svgs/geomicons-open/icons/warning.svg

<svg xmlns="http://www.w3.org/2000/svg" viewBox="0 0 32 32"><path d="M15 0h2l15 29-1 1H1l-1-1zm4 8h-6l1 12h4zm-3 14a3 3 0 000 6 3 3 0 000-6"/></svg>

<svg id="warning" xmlns="http://www.w3.org/2000/svg" viewBox="0 0 32 32" width="32" height="32" fill="currentcolor">
  <path d="M15 0 H17 L32 29 L31 30 L1 30 L0 29 z M19 8 L13 8 L14 20 L18 20 z M16 22 A3 3 0 0 0 16 28 A3 3 0 0 0 16 22"></path>
</svg>
